X: 35
T:Morrison's Jig (A section 2)
M:6/8
L:1/8
Q:120
R:Jig
K:Em
"Em"E2E B2B|E2E "D"AFD|
"Em"E2B E2B|"G"dcB "D"AFD|
"Em"E2E B2B|E2E "D"AFD|
"G"GAG "D"FGA|"G"d3 A2|
